X: 4
T: Gerry Commane's
Z: Antonio Jasiczek
S: https://thesession.org/tunes/364#setting50674
R: reel
M: 4/4
L: 1/8
K: Ador
|:d2ed cAGB|A2AG ABcA|dged cAGF|DGGF GBAG|
FAEA DEFG|AddA defg|afge fdfe|1d^cAF Ggfe:|2d^cAF Gefg||
|:a2ab agfg|abaf (3gagfg|agbg agfa|dggf gefg|
afge fd(3e/2f/2e/2d|^cAAe f2fg|afge fdfe|1d^cAF Gefg:|2d^cAF Ggfe||

%-------------------- TUNE SEPARATOR --------------------%

